X:38
T:Steyrer Tanz in C, nr. 34
C:traditionell
R:Steirer
A:Hallstatt, Salzkammergut
B:Corpus Musicae Popularis Austriacae (COMPA), 5.Band: J.M.Schmalnauer " Tanz Musik", Verlag Boehlau, Wien 1996
S:manuscript des Johann Michael Schmalnauer um 1820
N:im der quelle in C
N:um1800
N:in der Handschrift keine 2 .Stimme
M:3/4
L:1/8
K:C
V:1
%violino 1mo
EC |\
B,2 DFBd | ce G3 (E | FA) B,A, B,2 | DF EG,CE |\
B,2 DFBd | ce G3 (E | FA) B,A, B,2 | "in G" C4 :|
